src/topics/icons/eslint-old.svg

<svg height="263" preserveAspectRatio="xMidYMid" viewBox="0 0 256 263" width="256" xmlns="http://www.w3.org/2000/svg"><path d="m100.033785 262.105923-99.43543175-89.535405 27.85062415-130.8761754 127.1772646-41.34077022 99.435431 89.53540502-27.850624 130.8761756zm-48.0858434-106.180505 59.2913674 53.307836 75.827676-24.695671 16.6451-78.003506-59.291368-53.4166268-75.8276758 24.8044622z" fill="#3a33d1"/><path d="m181.301036 223.920106h-106.9420453l-53.5254183-92.690358 53.5254183-92.6903589h106.9420453l53.525418 92.6903589zm-88.1211157-32.63745h69.3001857l34.704489-60.052908-34.704489-60.0529087h-69.3001857l-34.5956972 60.0529087z" fill="#6464e2"/></svg>

<?xml version="1.0" encoding="UTF-8" standalone="no" ?>
<svg width="256px" height="263px" viewBox="0 0 256 263" version="1.1" xmlns="http://www.w3.org/2000/svg" xmlns:xlink="http://www.w3.org/1999/xlink" preserveAspectRatio="xMidYMid">
    <g>
        <path d="M100.033785,262.105923 L0.598353254,172.570518 L28.4489774,41.6943426 L155.626242,0.353572377 L255.061673,89.8889774 L227.211049,220.765153 L100.033785,262.105923 L100.033785,262.105923 Z M51.9479416,155.925418 L111.239309,209.233254 L187.066985,184.537583 L203.712085,106.534077 L144.420717,53.1174502 L68.5930412,77.9219124 L51.9479416,155.925418 L51.9479416,155.925418 Z" fill="#3A33D1"></path>
        <path d="M181.301036,223.920106 L74.3589907,223.920106 L20.8335724,131.229748 L74.3589907,38.5393891 L181.301036,38.5393891 L234.826454,131.229748 L181.301036,223.920106 L181.301036,223.920106 Z M93.1799203,191.282656 L162.480106,191.282656 L197.184595,131.229748 L162.480106,71.1768393 L93.1799203,71.1768393 L58.5842231,131.229748 L93.1799203,191.282656 L93.1799203,191.282656 Z" fill="#6464E2"></path>
    </g>
</svg>
